X:1
T:Title
%%score { ( 1 3 ) | ( 2 4 ) }
L:1/8
Q:1/4=112
M:4/4
K:Bb
V:1 treble nm="Grand Piano"
V:3 treble 
V:2 bass 
V:4 bass 
V:1
 [DB]2 [DB]2 [DA]2 [DA]2 | G>^F G>A [DG]2[K:bass] [F,B,D]2 | %2
w: C.~Harold~Lowden * * *||
 [F,DF]2[K:treble] [B,DF]2 [G,DG]2 [_A,D]2 | [A,EF]6 z2 | [Ec]2 [Ec]2 [EF]2 [EF]2 | %5
w: |||
 B>A B>c [Dd]2 [B,DB]2 | [=Ec]2 [EG]2 [EA]2 [EB]2 | c6 z2 | [DB]2 [DB]2 [DA]2 [DA]2 | G2 G2 z4 | %10
w: |||||
 [Dd]2 [Dd]2 [Dc]2 [Dc]2 | [DB]6[K:bass] z2 | B2 B2 G>^F G>A | B2 B2 B>A B>c | %14
w: ||||
 [=Ed]2 [Ec]2 [C_EA]2 [A,EF]2 |[M:3/4] [B,DB]6 |[M:1/4] F2 |[M:4/4] e4 =B4 | c3- c/c/- c2 z2 | %19
w: |||||
 d4 A4 | B2- B<B- B2[K:bass] z2 | B,2[K:treble] c2 c2 B2 | A2 A2 A2 C>D | C2 B2 B2 B2 | %24
w: |||||
 B2 B2 B2 F2 | e4 =B4 |[M:3/4] c3- c/c/- c2 |[M:1/4] B>c |[M:4/4] d4 A4 | B2 z/ dg/ b2 z2 | %30
w: ||||||
 B2 B2 G>^F G>A | B2 B2 B>A B>c | [=Ed]2 [Ec]2 [_EA]2 [EF]2 | [DB]6 z2 |] %34
w: ||||
V:2
 [B,,F,]2 [F,,F,]2 [B,,F,]2 [F,,F,]2 | [B,,F,]2 [F,,F,]2 [B,,F,]2 F,,2 | B,,2 B,,2 =B,,2 B,,2 | %3
 C,6 z2 | [C,F,]2 [F,,F,]2 [C,F,]2 [F,,F,]2 | [B,,F,]2 [F,,F,]2 [B,,F,]2 G,,2 | %6
 [C,B,]2 [C,B,]2 [C,A,]2 [C,G,]2 | [F,A,F]2 [G,B,]2 [A,C]2 [F,A,]2 | %8
 [B,,F,]2 [F,,F,]2 [B,,F,]2 [F,,F,]2 | [B,,F,]2 [F,,F,]2 [B,,F,]2 [B,,F,]2 | %10
 [A,,^F,]2 [A,,F,]2 [D,F,]2 [D,F,]2 | [G,,G,]6 z2 | [=E,G,_D]2 [E,G,D]2 z4 | [F,B,D]2 [F,B,D]2 z4 | %14
 [C,B,]2 [C,B,]2 F,2 F,2 |[M:3/4] z2[K:treble] F>F F2 |[M:1/4][K:bass] F,2 | %17
[M:4/4] C,2 [F,A,E]2 F,,2 [^F,G,D]2 | F,,2 [F,A,E]2 [F,A,E]2 z2 | B,,2 [F,B,D]2 F,,2 [F,B,D]2 | %20
 B,,2 [F,B,D]2 [F,B,D]2 z2 | z2[K:treble] [A,EF]2 [A,EF]2 [G,EF]2 | [F,EF]2 [A,EF]2 [CEF]2 z2 | %23
 z2 [B,DF]2 [A,_D=E]2 [G,DE]2 | [F,DF]2 [B,DF]2 [DF]2 z2 | C,2 F,2 F,,2 ^F,2 | %26
[M:3/4] F,,2 [F,A,E]2 [F,A,E]2 |[M:1/4] z2 |[M:4/4] A,,2 [^F,A,D]2 D,,2 [D,F,C]2 | %29
 G,,2 [D,G,B,D]2 [D,G,B,D]2 z2 | [E,G,_D]2 [E,G,D]2 z4 | [F,B,D]2 [F,B,D]2 z4 | %32
 [C,B,]2 [C,B,]2 [F,C]2 [F,A,]2 | [B,,B,]6 z2 |] %34
V:3
 x8 | D2 D2 z4[K:bass] | x2[K:treble] x6 | x8 | x8 | D2 D2 z4 | x8 | z2 =E2 _E2 E2 | x8 | %9
 D->[D^F] D->[DA] [DG]2 [B,D]2 | x8 | z2[K:bass] D,2 B,,2 G,,2 | x8 | x8 | x8 |[M:3/4] x6 | %16
[M:1/4] x2 |[M:4/4] z2 A2 z2 F2 | z2 F<.A f2 B>c | z2 F2 z2 F2 | z2 .F>d g2[K:bass] F,>B, | %21
 x2[K:treble] x6 | x8 | x8 | x8 | z2 A,2 z2 G,2 |[M:3/4] z2 F<.A f2 |[M:1/4] x2 | %28
[M:4/4] z2 ^F2 z2 D2 | z2 B4 z2 | x8 | x8 | x8 | x8 |] %34
V:4
 x8 | x8 | x8 | z2 A,,2 G,,2 F,,2 | x8 | x8 | x8 | x8 | x8 | x8 | x8 | x8 | x8 | x8 | x8 | %15
[M:3/4] B,,6[K:treble] |[M:1/4][K:bass] x2 |[M:4/4] x8 | x8 | x8 | x8 | x2[K:treble] x6 | x8 | x8 | %24
 x8 | x8 |[M:3/4] x6 |[M:1/4] x2 |[M:4/4] x8 | x8 | x8 | x8 | x8 | x8 |] %34

